X: 42
T: Miss Rowan Davies
C: Phil Cunningham
M: 3/4
L: 1/8
R:waltz
K: G
BA|"G"G4DD  | "D/F#"D3EF2 |"Em" G6-|"G/D"G2g2f2 |"C" e3G GG |"G" d3GB2 | "Am"A6  | "D7"B4A2 |
"G"G4DD  |"D/F#" D3EF2 |"Em" G6 | "G7"G2A2B2 |"Am" Ec3A2 |"D7" F4G2  | "G"G6- | G2 GF||
"C"E3 E E2 | e4G<G |"G" d6- |"Bm" d2B2AB | "C"G3AB2 | e2G3A | "Bm"B6 | "G7"B2c2dG |
"C"e4c2  | "D"F3G AF | "G"G6|"Em" G2A2B2 | "Am"Ec3A2 | "D7"F4G2  | "G"{A}G6- | G2 |]
